X:1
Q:1/4=126
L:1/8
M:2/4
K:C clef=G2
V:1
%%MIDI program 52
z4|z4|z4|z4|
z4|z4|z4|z4|
z4|z4|z4|z4|
z4|z^d31/32^d31/32^d31/32|^d31/16^d2-|^d31/32^d31/32^d31/32^d31/32|
^d31/16^d2-|^d31/32^G31/32^Gz/2^A31/64|c31/32c31/32^cz/2^A31/64|c31/32c31/32^d3/4^c3/4^d3/4|
c4-|c31/32^G31/32^Gz/2^A31/64|c31/32c31/32^cz/2^A31/64|c31/32c31/32^d3/4^c3/4^d3/4|
c4-|c31/32^G31/32^Gz/2^A31/64
L:1/8
M:2/4
K:C clef=G2
V:2
%%MIDI program 0
[C^D^Gc]15/8[C^D^Gc]15/8|[C^D^Gc]15/8^G15/32^A15/32c15/32^c15/32|[^Gc^d]15/8[^D-^G-c]15/16[f-^D^G]7/8|[^Gc^d]15/8d15/32^d15/32f15/32g15/32|
[^Gc^d^g]15/8[G^dg]15/8|[^G^d^f]15/8[G-^c-f]15/16[^d-G^c]7/8|[G^cf]15/8[G^cg]15/8|[^Gc^d^g]15/8^d3/4^d3/4^d3/4|
[e-]2[G^ce]7/4|[^Gc^d]31/32z^D3/4^D3/4^D3/4|[E-]2[G,^CE]7/4|[^G,C^D]31/32z[F^G^cf]15/8|
[^FAd^f]15/8[G^c^dg]15/8|[^Gc^d^g]15/16[^D^d]15/16[^D^d]15/16[^D^d]15/16|[^D-^d-][^G-c-^D^d]7/8[^D-^d-][^D-^d-^Gc]15/16|[^D^d]7/8z/8[^D^d]15/16[^D^d]15/16[^D^d]15/16|
[^D-^d-][^G-c-^D^d]7/8[^D-^d-][^D-^d-^Gc]15/16|[^D^d]7/8z/8[C^G]15/16[C^G]z/2[^C^A]15/32|[^Dc]15/16[^Dc]15/16[F^c]z/2[^C^A]15/32|[^Dc]15/16[^Dc]15/16[G^d]3/4[F^c]3/4[G^d]3/4|
[C-^D-^G-c-]4|[C^D^Gc]3/4z/4[C^G]15/16[C^G]z/2[^C^A]15/32|[^Dc]15/16[^Dc]15/16[F^c]z/2[^C^A]15/32|[^Dc]15/16[^Dc]15/16[G^d]3/4[F^c]3/4[G^d]3/4|
[C-^D-^G-c-]4|[C^D^Gc]3/4z/4[C^G]15/16[C^G]z/2[^C^A]15/32
L:1/8
M:2/4
K:C clef=F4
V:3
%%MIDI program 0
[^G,,^G,]15/8[^D,,^D,]15/8|[^G,,^G,]15/8z2|[^G,,^G,]15/8[^D,,^D,]15/8|[^G,,^G,]15/8z2|
[^G,,,^G,,]15/8[^A,,,^A,,]15/8|[C,,C,]15/8[^C,,^C,]15/8|[G,,G,]15/8[^D,,^D,]15/8|[^G,,,^G,,]15/8z2|
z2[^D,,^D,]15/8|[^G,,,^G,,]31/32z2z|z2[^D,,^D,]15/8|[^G,,,^G,,]31/32z[^C,,^C,]15/8|
[C,,C,]15/8[^A,,,^A,,]15/8|[^G,,,^G,,]15/16z2z|[^G,,^G,]15/8[^D,,^D,]15/8|[^G,,^G,]15/16z2z|
[^G,,^G,]15/8[^D,,^D,]15/8|[^G,,^G,]15/16z2z|[^G,,^G,]15/8[^D,,^D,]15/8|[^G,,^G,]15/8[^D,,^D,]15/8|
z[^C,,^C,]15/16[C,,C,]15/16[^A,,,^A,,]15/16|[^G,,,^G,,]15/16z2z|[^G,,^G,]15/8[^D,,^D,]15/8|[^G,,^G,]15/8[^D,,^D,]15/8|
z[^C,,^C,]15/16[C,,C,]15/16[^A,,,^A,,]15/16|[^G,,,^G,,]15/16z2z
Q:1/4=126
L:1/8
M:2/4
K:C clef=G2
V:1
%%MIDI program 52
c31/32c31/32^cz/2^A31/64|c31/32c31/32^d3/4^c3/4^d3/4||c96-c8-c31/32^G31/32^Gz/2^A31/64|
c31/32c31/32^cz/2^A31/64|c31/32c31/32^d3/4^c3/4^d3/4||c96-c8-c31/32c31/32cz/2c31/64|
c31/32c31/32c31/32c31/32|c31/32c31/32c31/32^c31/32|^c62/16|^c^c31/32^c31/32^c31/32|
^c31/32^c31/32^c31/32^c31/32|^c31/32^c31/32c31/32^d31/32|^d62/16|^d31/16^dz/2e31/64|
e62/16|c31/16^cz/2^d31/64|^d62/16|^d^d31/32^d31/32^d31/32|
^d31/32^d31/32^d31/32^d31/32|^f31/16^f31/16|^f^d31/32^d31/32^d31/32|f62/16|
^d31/16^dz/2^d31/64|^g62/16|^gz2z|z4|
z4|z4|z4|z4|
z4|z4|z4|z4|
z4|z4|z4|z^d31/32^d31/32^d31/32|
^d31/16^d31/16|^d^d31/32^d31/32^d31/32|^d31/16^d31/16|^d^d31/32^d31/32^d31/32|
^d31/16^d31/16|^d^d31/32^d31/32^d31/32|^d31/16^d31/16|^dz
L:1/8
M:2/4
K:C clef=G2
V:2
%%MIDI program 0
[^Dc]15/16[^Dc]15/16[F^c]z/2[^C^A]15/32|[^Dc]15/16[^Dc]15/16[G^d]3/4[F^c]3/4[G^d]3/4||[C-^D-^G-c-]96[C-^D-^G-c-]8[C^D^Gc]3/4z/4[C^G]15/16[C^G]z/2[^C^A]15/32|
[^Dc]15/16[^Dc]15/16[F^c]z/2[^C^A]15/32|[^Dc]15/16[^Dc]15/16[G^d]3/4[F^c]3/4[G^d]3/4||[C-^D-^G-c-]96[C-^D-^G-c-]8[C^D^Gc]3/4z/4[Cc]15/16[Cc]z/2[Cc]15/32|
[C^D^Gc]15/16[Cc]15/16[Cc]15/16[Cc]15/16|[C^D^Gc]15/16[Cc]15/16[Cc]15/16[^C^c]15/16|[^C-^c-][^C-^c-F^G]15/16[^C-^c-][^C-^c-F^G]|[^C^c]3/4z/4[^CF^G^c]15/16[^C^c]15/16[^C^c]15/16|
[^CF^G^c]15/16[^C^c]15/16[^C^c]15/16[^C^c]15/16|[^CF^G^c]15/16[^C^c]15/16[Cc]15/16[^D^d]15/16|[^D^Gc^d]30/8(5:4z/4|[^D^Gc^d]15/8[^D^d]z/2[Ee]15/32|
[E-e-][E-e-G^c]15/16[E-e-][G-^c-Ee]7/8[G^c]/8|[C^D^Gc]15/8[^C^c]z/2[^D^d]15/32|[^D-^d-][^D-^d-^Gc]15/16[^D-^d-][^D-^d-^Gc]|[^D^d]3/4z/4[^D^d]15/16[^D^d]15/16[^D^d]15/16|
[^D^d]15/16[^D^Gc^d]15/16[^D^d]15/16[^D^Gc^d]15/16|[^FB^d^f]15/8[^FB^d^f]31/16|(5:4[^FB^d^f]/2z3/4[^D^d]15/16[^D^d]15/16[^D^d]15/16|[F-f-][F-f-^G^c]15/16[F-f-][^G-^c-Ff]7/8[^G^c]/8|
[^D^d]15/8[^DG^c^d]z/2[^D^d]15/32|[^Gc^d^g]30/8(5:4z/4|[C^D^Gc]15/8[C^D^Gc]15/8|[C^D^Gc]15/8^G15/32^A15/32c15/32^c15/32|
[^Gc^d]15/8[^D-^G-c]15/16[f-^D^G]7/8|[^Gc^d]15/8d15/32^d15/32f15/32g15/32|[^Gc^d^g]15/8[G^dg]15/8|[^G^d^f]15/8[G-^c-f]15/16[^d-G^c]7/8|
[G^cf]15/8[G^cg]15/8|[^Gc^d^g]15/8^d3/4^d3/4^d3/4||[e-]96[e]6[G^ce]7/4[^Gc^d]31/32z^D3/4^D3/4^D3/4|
|[E-]96[E]6[G,^CE]7/4[^G,C^D]31/32z[F^G^cf]15/8|[^FAd^f]15/8[G^c^dg]15/8|[^Gc^d^g]15/16[^D^d]15/16[^D^d]15/16[^D^d]15/16|
[^D-^d-][^G-c-^D^d]7/8[^D-^d-][^D-^d-^Gc]15/16|[^D^d]7/8z/8[^D^d]15/16[^D^d]15/16[^D^d]15/16|[^D-^d-][^G-c-^D^d]7/8[^D-^d-][^D-^d-^Gc]15/16|[^D^d]7/8z/8[^D^d]15/16[^D^d]15/16[^D^d]15/16|
[^D-^d-][^G-c-^D^d]7/8[^D-^d-][^D-^d-^Gc]15/16|[^D^d]7/8z/8[^D^d]15/16[^D^d]15/16[^D^d]15/16|[^D-^d-][^G-c-^D^d]7/8[^D-^d-][^G-c-^D^d]7/8|[^Gc^d^g]31/16
L:1/8
M:2/4
K:C clef=F4
V:3
%%MIDI program 0
[^G,,^G,]15/8[^D,,^D,]15/8|[^G,,^G,]15/8[^D,,^D,]15/8|z[^C,,^C,]15/16[C,,C,]15/16[^A,,,^A,,]15/16|[^G,,,^G,,]15/16z2z|
[^G,,^G,]15/8[^D,,^D,]15/8|[^G,,^G,]15/8[^D,,^D,]15/8|z[^C,,^C,]15/16[C,,C,]15/16[^A,,,^A,,]15/16|[^G,,,^G,,]15/16z2z|
[^G,,^G,]15/8[^D,,^D,]15/8|[^G,,^G,]15/8[^D,,^D,]15/8|[^C,,^C,]15/16[C,,C,]15/16[^A,,,^A,,]15/16[^G,,,^G,,]15/16|[^C,,^C,]15/16z[^G,,,^G,,]15/8|
[^C,,^C,]15/8[^G,,,^G,,]15/8|[^C,,^C,]15/8[^G,,,^G,,]15/8|z[^A,,,^A,,]15/16[C,,C,]15/16[^C,,^C,]15/16|[^D,,^D,]15/16z2z|
[^A,,,^A,,]15/8[^D,,,^D,,]15/8|[^G,,,^G,,]15/8z2|[^G,,,^G,,]15/8[^D,,,^D,,]15/8|[^G,,,^G,,]15/16z2z|
[^G,,^G,]15/8[^D,,^D,]15/8|[B,,,B,,]15/8[^F,,,^F,,]15/8|[B,,,B,,]31/64z2zz/2|[^C,,^C,]15/8[^G,,,^G,,]15/8|
[^D,,^D,]15/8[^D,,,^D,,]15/8|z[^C,^C]15/16[C,C]15/16[^A,,^A,]15/16|[^G,,^G,]15/8[^D,,^D,]15/8|[^G,,^G,]15/8z2|
[^G,,^G,]15/8[^D,,^D,]15/8|[^G,,^G,]15/8z2|[^G,,,^G,,]15/8[^A,,,^A,,]15/8|[C,,C,]15/8[^C,,^C,]15/8|
[G,,G,]15/8[^D,,^D,]15/8|[^G,,,^G,,]15/8z2|z2[^D,,^D,]15/8|[^G,,,^G,,]31/32z2z|
z2[^D,,^D,]15/8|[^G,,,^G,,]31/32z[^C,,^C,]15/8|[C,,C,]15/8[^A,,,^A,,]15/8|[^G,,,^G,,]15/16z2z|
[^G,,^G,]15/8[^D,,^D,]15/8|[^G,,^G,]15/16z2z|[^G,,^G,]15/8[^D,,^D,]15/8|[^G,,^G,]15/16z2z|
[^G,,^G,]15/8[^D,,^D,]15/8|[^G,,^G,]15/16z2z|[^G,,^G,]15/8[^D,,^D,]15/8|[^G,,,^G,,]31/16


